X:2384
T:Y Graihder Jouylagh
T:(The Demon Lover) 
C:John Quayle, Glion Meay 
C:Traditional
O:Isle of Man
N:See KV272
Z:Kiaull Vannin 384 
M:3/4 
L:1/8 
Q:120 
K:D 
d2|ee f2 ed|cd A3 A2|dd B2 G2|F4 FG|AA A3 B/c/|dd d3 e/f/|gf f2 e2|d4|| 

